!!!COM: Music21
!!!OTL: Alén
!!!OMV: pezas_valses_vals-alen_alen-partitura.musicxml
**kern
*part1
*staff1
*I"Gaita
*I'Bag
*clefG^2
*k[b-]
*M3/4
*MM214
=1
!LO:TX:a:t=[quarter]=214
4r
4cc
4ff
=||
4aa
4ff
4aa
=
4bb-
4ccc
4bb-
=
4.aa
.
8gg
[4ff
=
4ff]
4bb-
4aa
=
2gg
4ff
=
4ee
4ff
4gg
=
4aa
4aa-X
4gg
=
4ff
4cc
4ff
=
4aa
4ff
4aa
=
4bb-
4ccc
4bb-
!!linebreak:original
=
4.aa
.
8gg
[4ff
=
4ff]
4bb-
4aa
=
4gg
4ff
4ee
=
4cc
4dd
4ee
=
2ff
4aa
=
4ff
4cc
4ff
=||
4aa
4ff
4aa
=
4bb-
4ccc
4bb-
=
4.aa
.
8gg
[4ff
=
4ff]
4bb-
4aa
=
2gg
4ff
!!linebreak:original
=
4ee
4ff
4gg
=
4aa
4aa-X
4gg
=
4ff
4cc
4ff
=
4aa
4ff
4aa
=
4bb-
4ccc
4bb-
!!linebreak:original
=
4.aa
.
8gg
[4ff
=
4ff]
4bb-
4aa
=
4gg
4ff
4ee
=
4cc
4dd
4ee
=
[2.ff
=
4ff]
4ff
4ee
=||
4.gg
8ff
[4ee
=
4ee]
4gg
4ff
=
4.aa
8gg
[4ff
!!linebreak:original
=
4ff]
4aa
4gg
=
4bb-
8bb-L
8aaJ
8ggL
8ffJ
=
4ee
4ff
4gg
=
4aa
4aa-X
4gg
=
4ff
4ff
4ee
=
4.gg
8ff
[4ee
=
4ee]
4gg
4ff
=
4.aa
8gg
[4ff
=
4ff]
4aa
4gg
=
4bb-
8bb-L
8aaJ
8ggL
8ffJ
!!linebreak:original
=
4ee
4ff
4gg
=
2ff
4aa
=
4ff
4ff
4ee
=||
4.gg
8ff
[4ee
=
4ee]
4gg
4ff
=
4.aa
8gg
[4ff
!!pagebreak:original
=
4ff]
4aa
4gg
=
4bb-
8bb-L
8aaJ
8ggL
8ffJ
=
4ee
4ff
4gg
=
4aa
4aa-X
4gg
=
4ff
4ff
4ee
=
4.gg
8ff
[4ee
=
4ee]
4gg
4ff
=
4.aa
8gg
[4ff
=
4ff]
4aa
4gg
=
4bb-
8bb-L
8aaJ
8ggL
8ffJ
!!linebreak:original
=
4ee
4ff
4gg
=
[2.ff
=
4ff]
4cc
4ff
==
*-
!!!system-decoration: s1,s2
